images/icons/close-btn.svg

<svg width="24" height="24" viewBox="0 0 24 24" fill="none" xmlns="http://www.w3.org/2000/svg">
<path d="M12 14.5551L3.05703 23.4981C2.72243 23.8327 2.29658 24 1.77947 24C1.26236 24 0.836501 23.8327 0.5019 23.4981C0.1673 23.1635 0 22.7376 0 22.2205C0 21.7034 0.1673 21.2776 0.5019 20.943L9.44487 12L0.5019 3.05703C0.1673 2.72243 0 2.29658 0 1.77947C0 1.26236 0.1673 0.836501 0.5019 0.5019C0.836501 0.1673 1.26236 0 1.77947 0C2.29658 0 2.72243 0.1673 3.05703 0.5019L12 9.44487L20.943 0.5019C21.2776 0.1673 21.7034 0 22.2205 0C22.7376 0 23.1635 0.1673 23.4981 0.5019C23.8327 0.836501 24 1.26236 24 1.77947C24 2.29658 23.8327 2.72243 23.4981 3.05703L14.5551 12L23.4981 20.943C23.8327 21.2776 24 21.7034 24 22.2205C24 22.7376 23.8327 23.1635 23.4981 23.4981C23.1635 23.8327 22.7376 24 22.2205 24C21.7034 24 21.2776 23.8327 20.943 23.4981L12 14.5551Z" fill="#161219"/>
</svg>

<svg xmlns="http://www.w3.org/2000/svg" width="24" height="24" fill="none"><path fill="#161219" d="m12 14.555-8.943 8.943c-.335.335-.76.502-1.278.502-.517 0-.942-.167-1.277-.502-.335-.335-.502-.76-.502-1.277 0-.518.167-.943.502-1.278L9.445 12 .502 3.057C.167 2.722 0 2.297 0 1.779 0 1.262.167.837.502.502.837.167 1.262 0 1.779 0c.518 0 .943.167 1.278.502L12 9.445 20.943.502C21.278.167 21.703 0 22.22 0c.518 0 .944.167 1.278.502.335.335.502.76.502 1.277 0 .518-.167.943-.502 1.278L14.555 12l8.943 8.943c.335.335.502.76.502 1.277 0 .518-.167.944-.502 1.278-.335.335-.76.502-1.277.502-.518 0-.943-.167-1.278-.502L12 14.555Z"/></svg>
